X: 17
T: No_113_The_Songs_Are_Beginning.krn
N: Derived from No_113_The_Songs_Are_Beginning.krn
%%abc-version 2.0
%%abcx-abcm2ps-target-version 5.9.1 (29 Sep 2008)
%%abc-creator hum2abc beta
%%abcx-conversion-date 2019/03/15 08:37:56
%%humdrum-veritas 1837498687
%%humdrum-veritas-data 2697126962
%%linebreak <none>
%%barnumbers 0
L: 1/8
M: 3/4
K: Ab clef=bass
E,2 [I:setbarnb 1]| 
B,2B,3/B,/ B,3/F,/ ]|:  
[M:2/4]A,2A,2 | 
A,3/F,/ F,F, | 
E,2C, z | 
E,4 | 
B,, z F,F, | 
A,A,A,2 | 
F,2E, z ||  
[M:3/4]F,2A,2F,F, ||  
[M:2/4]E,3/C,/ E,E, | 
E,2B,, z ||  
[M:3/4]F,3/F,/F,2E,3/C,/ ||  
[M:2/4]E,4 | 
B,, z E,E, | 
E,4 :|]  



